X:46
T:Old Dan Tucker
M:2/4
L:1/8
K:D
%%MIDI channel 1
%%MIDI program 72
%%MIDI transpose 8
%%MIDI grace 1/8
%%MIDI ratio 3 1
A|dddc|ddd A/A/|ddef|AA B (3(A/B/c/)|dddc|dddA|dd ef|AAB::
z|Lf2 Laz/f/|ed Bd|e>e ef|AA Bd|Lf2 Laz/f/|ed Bd|e>e ef|ABd :|
